X:108
T:Tripping up the Stairs
R:jig
M:6/8
L:1/8
K:D
FAA GBB | FAd fed | cBc ABc | dfe dBA | FAA GBB | FAd fed |
cBc ABc |1 dfe d2A :|2 dfe d2c |: dBB fBB | fgf fed |
cAA eAA | efe edc | dBB fBB | fgf fed | cBc ABc |1 dfe d2c :|2 dfe d3 |]
